src/app/assets/pxblue-conformity.svg

<svg fill="none" height="125" viewBox="0 0 445 125" width="445" xmlns="http://www.w3.org/2000/svg"><path d="m0 0h445v125h-445z" fill="#fff"/><path d="m0 63h445" stroke="#e0eef8" stroke-dasharray="4 6" stroke-width="4"/><circle cx="67" cy="63" fill="#e0eef8" r="40"/><path clip-rule="evenodd" d="m71.5167 66.3333h1.3166l8.3167 8.3334-2.4833 2.4833-8.3334-8.3167v-1.3166l-.45-.4667c-1.9 1.6333-4.3666 2.6167-7.05 2.6167-5.9833 0-10.8333-4.85-10.8333-10.8334 0-5.9833 4.85-10.8333 10.8333-10.8333 5.9834 0 10.8334 4.85 10.8334 10.8333 0 2.6834-.9834 5.15-2.6167 7.05zm-16.1834-7.5c0 4.15 3.35 7.5 7.5 7.5s7.5-3.35 7.5-7.5-3.35-7.5-7.5-7.5-7.5 3.35-7.5 7.5z" fill="#007bc1" fill-rule="evenodd"/><circle cx="275" cy="63" fill="#e0eef8" r="40"/><path clip-rule="evenodd" d="m291.667 54.6667v3.3333h-3.334v3.3333h3.334v3.3334h-3.334v3.3333h3.334v3.3333h-3.334v3.3334c0 1.8333-1.5 3.3333-3.333 3.3333h-23.333c-1.834 0-3.334-1.5-3.334-3.3333v-23.3334c0-1.8333 1.5-3.3333 3.334-3.3333h23.333c1.833 0 3.333 1.5 3.333 3.3333v3.3334zm-30 20h23.333v-23.3334h-23.333zm3.333-10h8.333v6.6666h-8.333zm16.667-10h-6.667v5h6.667zm-16.667 0h8.333v8.3333h-8.333zm16.667 6.6666h-6.667v10h6.667z" fill="#007bc1" fill-rule="evenodd"/><circle cx="171" cy="63" fill="#e0eef8" r="40"/><path clip-rule="evenodd" d="m170.2 44.6666v5c7.072 0 12.8 5.9667 12.8 13.3334 0 2.6166-.736 5.05-1.984 7.1l-2.336-2.4334c.72-1.3833 1.12-2.9833 1.12-4.6666 0-5.5167-4.304-10-9.6-10v5l-6.4-6.6667zm-9.6 18.3334c0 5.5166 4.304 10 9.6 10v-5l6.4 6.6666-6.4 6.6667v-5c-7.072 0-12.8-5.9667-12.8-13.3333 0-2.6167.736-5.05 1.984-7.1l2.336 2.4333c-.72 1.3833-1.12 2.9833-1.12 4.6667z" fill="#007bc1" fill-rule="evenodd"/><circle cx="379" cy="63" fill="#e0eef8" r="40"/><path clip-rule="evenodd" d="m390.667 48h-1.667v-3.3334h-3.333v3.3334h-13.334v-3.3334h-3.333v3.3334h-1.667c-1.85 0-3.316 1.5-3.316 3.3333l-.017 23.3333c0 1.8334 1.483 3.3334 3.333 3.3334h23.334c1.833 0 3.333-1.5 3.333-3.3334v-23.3333c0-1.8333-1.5-3.3333-3.333-3.3333zm-4.117 13.4333-1.767-1.7667-8.133 8.1334-3.533-3.5334-1.767 1.7667 5.3 5.3zm-19.217 13.2333h23.334v-18.3333h-23.334z" fill="#007bc1" fill-rule="evenodd"/></svg>

<svg width="445" height="125" viewBox="0 0 445 125" fill="none" xmlns="http://www.w3.org/2000/svg">
<rect width="445" height="125" fill="white"/>
<line y1="63" x2="445" y2="63" stroke="#E0EEF8" stroke-width="4" stroke-dasharray="4 6"/>
<circle cx="67" cy="63" r="40" fill="#E0EEF8"/>
<path fill-rule="evenodd" clip-rule="evenodd" d="M71.5167 66.3333H72.8333L81.15 74.6667L78.6667 77.15L70.3333 68.8333V67.5167L69.8833 67.05C67.9833 68.6833 65.5167 69.6667 62.8333 69.6667C56.85 69.6667 52 64.8167 52 58.8333C52 52.85 56.85 48 62.8333 48C68.8167 48 73.6667 52.85 73.6667 58.8333C73.6667 61.5167 72.6833 63.9833 71.05 65.8833L71.5167 66.3333ZM55.3333 58.8333C55.3333 62.9833 58.6833 66.3333 62.8333 66.3333C66.9833 66.3333 70.3333 62.9833 70.3333 58.8333C70.3333 54.6833 66.9833 51.3333 62.8333 51.3333C58.6833 51.3333 55.3333 54.6833 55.3333 58.8333Z" fill="#007BC1"/>
<circle cx="275" cy="63" r="40" fill="#E0EEF8"/>
<path fill-rule="evenodd" clip-rule="evenodd" d="M291.667 54.6667V58H288.333V61.3333H291.667V64.6667H288.333V68H291.667V71.3333H288.333V74.6667C288.333 76.5 286.833 78 285 78H261.667C259.833 78 258.333 76.5 258.333 74.6667V51.3333C258.333 49.5 259.833 48 261.667 48H285C286.833 48 288.333 49.5 288.333 51.3333V54.6667H291.667ZM261.667 74.6667H285V51.3333H261.667V74.6667ZM265 64.6667H273.333V71.3333H265V64.6667ZM281.667 54.6667H275V59.6667H281.667V54.6667ZM265 54.6667H273.333V63H265V54.6667ZM281.667 61.3333H275V71.3333H281.667V61.3333Z" fill="#007BC1"/>
<circle cx="171" cy="63" r="40" fill="#E0EEF8"/>
<path fill-rule="evenodd" clip-rule="evenodd" d="M170.2 44.6666V49.6666C177.272 49.6666 183 55.6333 183 63C183 65.6166 182.264 68.05 181.016 70.1L178.68 67.6666C179.4 66.2833 179.8 64.6833 179.8 63C179.8 57.4833 175.496 53 170.2 53V58L163.8 51.3333L170.2 44.6666ZM160.6 63C160.6 68.5166 164.904 73 170.2 73V68L176.6 74.6666L170.2 81.3333V76.3333C163.128 76.3333 157.4 70.3666 157.4 63C157.4 60.3833 158.136 57.95 159.384 55.9L161.72 58.3333C161 59.7166 160.6 61.3166 160.6 63Z" fill="#007BC1"/>
<circle cx="379" cy="63" r="40" fill="#E0EEF8"/>
<path fill-rule="evenodd" clip-rule="evenodd" d="M390.667 48H389V44.6666H385.667V48H372.333V44.6666H369V48H367.333C365.483 48 364.017 49.5 364.017 51.3333L364 74.6666C364 76.5 365.483 78 367.333 78H390.667C392.5 78 394 76.5 394 74.6666V51.3333C394 49.5 392.5 48 390.667 48ZM386.55 61.4333L384.783 59.6666L376.65 67.8L373.117 64.2666L371.35 66.0333L376.65 71.3333L386.55 61.4333ZM367.333 74.6666H390.667V56.3333H367.333V74.6666Z" fill="#007BC1"/>
</svg>
